packages/symbols/svgs/outline/bulb-outline.svg

<svg width="24" height="24" viewBox="0 0 24 24" fill="none" xmlns="http://www.w3.org/2000/svg">
<path fill-rule="evenodd" clip-rule="evenodd" d="M0 12C0 11.4477 0.447715 11 1 11H3C3.55228 11 4 11.4477 4 12C4 12.5523 3.55228 13 3 13H1C0.447715 13 0 12.5523 0 12Z" fill="black"/>
<path fill-rule="evenodd" clip-rule="evenodd" d="M3.51494 3.51488C3.90546 3.12435 4.53863 3.12435 4.92915 3.51488L6.34315 4.92888C6.73368 5.3194 6.73368 5.95257 6.34315 6.34309C5.95263 6.73362 5.31946 6.73362 4.92894 6.34309L3.51494 4.92909C3.12441 4.53857 3.12441 3.9054 3.51494 3.51488Z" fill="black"/>
<path fill-rule="evenodd" clip-rule="evenodd" d="M12 0C12.5523 0 13 0.447715 13 1V3C13 3.55228 12.5523 4 12 4C11.4477 4 11 3.55228 11 3V1C11 0.447715 11.4477 0 12 0Z" fill="black"/>
<path fill-rule="evenodd" clip-rule="evenodd" d="M20.4851 3.51488C20.8756 3.9054 20.8756 4.53857 20.4851 4.92909L19.0711 6.34309C18.6806 6.73362 18.0474 6.73362 17.6569 6.34309C17.2664 5.95257 17.2664 5.3194 17.6569 4.92888L19.0709 3.51488C19.4614 3.12435 20.0946 3.12435 20.4851 3.51488Z" fill="black"/>
<path fill-rule="evenodd" clip-rule="evenodd" d="M20 12C20 11.4477 20.4477 11 21 11H23C23.5523 11 24 11.4477 24 12C24 12.5523 23.5523 13 23 13H21C20.4477 13 20 12.5523 20 12Z" fill="black"/>
<path fill-rule="evenodd" clip-rule="evenodd" d="M5 12C5 8.13372 8.13372 5 12 5C15.8663 5 19 8.13372 19 12C19 14.7938 17.3616 17.1966 15 18.3184V22C15 22.5523 14.5523 23 14 23H10C9.44772 23 9 22.5523 9 22V18.3184C6.6384 17.1966 5 14.7938 5 12ZM12 7C9.23828 7 7 9.23828 7 12C7 14.1723 8.3897 16.0205 10.3335 16.7083C10.733 16.8496 11 17.2273 11 17.651V21H13V17.651C13 17.2273 13.267 16.8496 13.6665 16.7083C15.6103 16.0205 17 14.1723 17 12C17 9.23828 14.7617 7 12 7Z" fill="black"/>
</svg>

<svg width="24" height="24" viewBox="0 0 24 24" xmlns="http://www.w3.org/2000/svg"><path fill-rule="evenodd" clip-rule="evenodd" d="M0 12a1 1 0 0 1 1-1h2a1 1 0 1 1 0 2H1a1 1 0 0 1-1-1Zm3.515-8.485a1 1 0 0 1 1.414 0l1.414 1.414A1 1 0 1 1 4.93 6.343L3.515 4.93a1 1 0 0 1 0-1.414ZM12 0a1 1 0 0 1 1 1v2a1 1 0 1 1-2 0V1a1 1 0 0 1 1-1Zm8.485 3.515a1 1 0 0 1 0 1.414l-1.414 1.414a1 1 0 1 1-1.414-1.414l1.414-1.414a1 1 0 0 1 1.414 0ZM20 12a1 1 0 0 1 1-1h2a1 1 0 1 1 0 2h-2a1 1 0 0 1-1-1ZM5 12a7 7 0 1 1 14 0 6.991 6.991 0 0 1-4 6.318V22a1 1 0 0 1-1 1h-4a1 1 0 0 1-1-1v-3.682A6.991 6.991 0 0 1 5 12Zm7-5a4.996 4.996 0 0 0-1.666 9.708 1 1 0 0 1 .666.943V21h2v-3.349a1 1 0 0 1 .666-.943A4.996 4.996 0 0 0 12 7Z"/></svg>
